svgs/regular/cubes.svg

<svg xmlns="http://www.w3.org/2000/svg" viewBox="0 0 576 512"><!--! Font Awesome Pro 6.0.0-alpha3 by @fontawesome - https://fontawesome.com License - https://fontawesome.com/license (Commercial License) --><path d="M555.2 256.6L448 215.8V78.95c0-13.53-8.273-25.64-20.76-30.4l-116.8-44.42C303.2 1.377 295.6 0 288 0S272.8 1.377 265.5 4.135L148.8 48.56C136.3 53.31 128 65.42 128 78.95v136.8L20.76 256.6C8.273 261.3 0 273.5 0 287v146c0 13.53 8.273 25.65 20.76 30.4l116.8 44.42C144.8 510.6 152.4 512 160 512s15.23-1.379 22.47-4.135L288 467.7l105.5 40.15C400.8 510.6 408.4 512 416 512s15.23-1.379 22.47-4.135l116.8-44.42C567.7 458.7 576 446.6 576 433V287C576 273.5 567.7 261.3 555.2 256.6zM136 455.9L48 422.4V337.8l88 29.33V455.9zM160 324.5L62.52 292L153.7 257.3l97.07 36.93L160 324.5zM264 425.5l-80 30.44V367.1l80-26.67V425.5zM264 243.2L182.5 212.1C180.4 211.3 178.2 210.9 176 210.3V129.8L264 159.1V243.2zM190.5 84.03l92.08-35.03C284.3 48.34 286.2 48 288 48s3.662 .3359 5.404 .998l92.07 35.03L288 116.5L190.5 84.03zM400 129.8v80.55c-2.166 .5684-4.359 1.003-6.473 1.808L312 243.1V159.1L400 129.8zM392 455.9l-80-30.44V340.4l80 26.67V455.9zM416 324.5l-90.79-30.26l97.06-36.93l91.2 34.7L416 324.5zM528 422.4l-88 33.48V367.1l88-29.33V422.4z"/></svg>

<svg xmlns="http://www.w3.org/2000/svg" viewBox="0 0 576 512"><!-- Font Awesome Pro 6.0.0-alpha2 by @fontawesome - https://fontawesome.com License - https://fontawesome.com/license (Commercial License) --><path d="M555.236 256.557L448 215.76V78.953C448 65.422 439.727 53.309 427.236 48.557L310.473 4.135C303.227 1.377 295.613 0 288 0S272.773 1.377 265.527 4.135L148.764 48.557C136.273 53.309 128 65.422 128 78.953V215.76L20.764 256.557C8.273 261.309 0 273.422 0 286.953V433.045C0 446.578 8.273 458.691 20.764 463.443L137.527 507.865C144.773 510.621 152.387 512 160 512S175.227 510.621 182.473 507.865L288 467.719L393.527 507.865C400.773 510.621 408.387 512 416 512S431.227 510.621 438.473 507.865L555.236 463.443C567.727 458.691 576 446.578 576 433.045V286.953C576 273.422 567.727 261.309 555.236 256.557ZM136 455.928L48 422.449V337.779L136 367.113V455.928ZM160 324.52L62.521 292.027L153.721 257.33L250.787 294.258L160 324.52ZM264 425.492L184 455.93V367.113L264 340.445V425.492ZM264 243.15L182.473 212.135C180.359 211.33 178.166 210.896 176 210.326V129.779L264 159.113V243.15ZM190.521 84.027L282.598 48.996C284.338 48.336 286.154 48 288 48S291.662 48.336 293.404 48.998L385.479 84.027L288 116.52L190.521 84.027ZM400 129.779V210.326C397.834 210.895 395.641 211.33 393.527 212.135L312 243.15V159.113L400 129.779ZM392 455.928L312 425.492V340.445L392 367.113V455.928ZM416 324.52L325.213 294.258L422.277 257.33L513.479 292.027L416 324.52ZM528 422.449L440 455.93V367.113L528 337.779V422.449Z "></path></svg>
